X:1
T:Joy, Joy, Immortal Joy
T:Peter Christian Lutkin
T:Joy, Joy, Immortal Joy
T:Public Domain
T:Public Domain
C:Peter Christian Lutkin
Z:Public Domain
%%score ( 1 2 ) ( 3 4 )
L:1/8
M:4/4
K:Ab
V:1 treble 
V:2 treble 
V:3 bass 
V:4 bass 
V:1
 !>![Ec]2 z2 !>![Ac]3 [Ac] | !>![Be]3 [Bd] [Ac]2 [EA]2 | [FA]2 [DF]2 [FA]2 [Fd]2 | [Ec]6 [FA]2 | %4
w: 1.~Joy, joy, im-|mor- tal joy! The|Lord is ris’n to|reign; On|
w: 2.~Joy, deep and|liv- ing joy! The|stone is rolled a-|way; The|
w: 3.~Joy, pure and|sac- red joy! Let|men and an- gels|sing; Let|
w: 4.~Joy, rich and|end- less joy! High|Heav’n the praise pro-|long; Let|
 !>![FA]3 [=EG] [EG]2 [GB]2 | !>![GB]3 [FA] [FA]2 [FA]2 | [EG]2 E2 [EF]2 [=DA]2 | [EG]6 [Ac]2 | %8
w: East- er day, the|Script- ures say, Christ|rose to life a-|On East-|
w: emp- ty tomb has|lost its gloom, The|night has turned to|The emp-|
w: ev- ery voice in|song re- joice To|praise our Lord and|Let ev-|
w: ho- ly joy all|tongues em- ploy And|fill the world with|Let ho-|
 [Ac]3 [GB] [GB]2 [Bd]2 | [Bd]3 [Ac] [Ac]2 [_Ge]2 | [Fd]2 F2 [EG]2 [DB]2 | [CA]6 |] %12
w: er day, the Script-|ures say, Christ rose|to life a- gain.||
w: ty tomb hast lost|its gloom, The night|has turned to day.||
w: ery voice in song|re- joice To praise|our Lord and King.||
w: ly joy all tongues|em- ploy And fill|the world with song.||
V:2
 x8 | x8 | x8 | x8 | x8 | x8 | x2 E2 x4 | x8 | x8 | x8 | x2 F2 x4 | x6 |] %12
w: ||||||gain.||||||
w: ||||||day.||||||
w: ||||||King.||||||
w: ||||||song.||||||
V:3
 !>![A,,A,]2 z2 !>![A,E]3 [A,E] | !>![G,E]3 [G,E] [A,E]2 [C,A,]2 | [D,A,]2 A,2 [F,A,]2 [D,A,]2 | %3
 [A,,A,]6 [F,A,]2 | [F,A,]3 [=E,G,] [E,G,]2 [G,B,]2 | [G,B,]3 [F,A,] [F,A,]2 [A,,C]2 | %6
 [B,,B,]2 [B,,G,]2 [B,,F,]2 [B,,B,]2 | [E,B,]6 [A,C]2 | [A,C]3 [G,B,] [G,B,]2 [B,D]2 | %9
 [B,D]3 [A,C] [A,C]2 [C,A,]2 | [D,A,]2 [D,D]2 [E,D]2 [E,G,]2 | [A,,A,]6 |] %12
V:4
 x8 | x8 | x2 A,2 x4 | x8 | C,6 x2 | F,,6 x2 | x8 | x8 | E,6 x2 | A,,6 x2 | x8 | x6 |] %12

